X:1
T:Memory of Inver, The
T:Memory of Inver, The
T:Nathaniel Gow (1763-1831)
C:Nathaniel Gow (1763-1831)
L:1/8
M:4/4
K:Gmin
V:1 treble 
V:1
 b | g<g d>g f(=e/f/) dB | (A/B/c) Tc>d AFFb | g<g d>g Tf(=e/f/) dB | (A/B/c) Ad BGGb | %5
 g<gd>g (Tf=e/f/) dB | (A/B/c) fc AFF>A | G<GBG dd g2 | f>dcd BGG || B | (DGB)G Dd B2 | %11
 c<c Tc>B AFFA | (DG)(BG) D<d B2 | c<c A>d BGG>B | (DG)(BG) D<d B2 | c>c Tc>B AFFA | %16
 (DG)(BG) d<d g2 | f>d c>d BGG || %18

